packages/ui-icons/svg/Solid/table-cell-select-all.svg

<svg viewBox="0 0 1920 1920" version="1.1" xmlns="http://www.w3.org/2000/svg">
    <path d="M225.882353,-2.27373675e-13 L1694.11765,-2.27373675e-13 C1818.69176,-2.27373675e-13 1920,101.308235 1920,225.882353 L1920,1694.11765 C1920,1818.69176 1818.69176,1920 1694.11765,1920 L225.882353,1920 C101.308235,1920 0,1818.69176 0,1694.11765 L0,225.882353 C0,101.308235 101.308235,-2.27373675e-13 225.882353,-2.27373675e-13 Z M1080.34353,1694.11765 L1694.34353,1694.11765 L1694.34353,1080.11765 L1080.34353,1080.11765 L1080.34353,1694.11765 Z M225.882353,839.882353 L839.882353,839.882353 L839.882353,225.882353 L225.882353,225.882353 L225.882353,839.882353 Z M225.882353,1694.11765 L839.882353,1694.11765 L839.882353,1080.11765 L225.882353,1080.11765 L225.882353,1694.11765 Z M1080.11765,839.882353 L1694.11765,839.882353 L1694.11765,225.882353 L1080.11765,225.882353 L1080.11765,839.882353 Z" stroke="none" stroke-width="1" fill-rule="evenodd"/>
</svg>

<svg viewBox="0 0 1920 1920" version="1.1" xmlns="http://www.w3.org/2000/svg">
    <path d="M225.882 0h1468.236C1818.692 0 1920 101.308 1920 225.882v1468.236c0 124.574-101.308 225.882-225.882 225.882H225.882C101.308 1920 0 1818.692 0 1694.118V225.882C0 101.308 101.308 0 225.882 0zm854.462 1694.118h614v-614h-614v614zM225.882 839.882h614v-614h-614v614zm0 854.236h614v-614h-614v614zm854.236-854.236h614v-614h-614v614z" stroke="none" stroke-width="1" fill-rule="evenodd"/>
</svg>
